src/lib/packages/icons/src/assets/filled/arrows-move.svg

<svg width="24" height="24" viewBox="0 0 24 24" fill="none" xmlns="http://www.w3.org/2000/svg">
<path d="M21.7061 12.7081L18.7071 15.7071C18.5121 15.9021 18.2561 16.0001 18.0001 16.0001C17.7441 16.0001 17.488 15.9021 17.293 15.7071C16.902 15.3161 16.902 14.684 17.293 14.293L18.586 13.0001H13.0001V18.586L14.293 17.293C14.684 16.902 15.3161 16.902 15.7071 17.293C16.0981 17.684 16.0981 18.3161 15.7071 18.7071L12.7081 21.7061C12.6151 21.7991 12.5051 21.8722 12.3821 21.9232C12.2601 21.9742 12.1301 22.0001 12.0001 22.0001C11.8701 22.0001 11.74 21.9732 11.618 21.9232C11.495 21.8722 11.3851 21.7991 11.2921 21.7061L8.29304 18.7071C7.90204 18.3161 7.90204 17.684 8.29304 17.293C8.68403 16.902 9.3161 16.902 9.7071 17.293L11.0001 18.586V13.0001H5.41413L6.7071 14.293C7.0981 14.684 7.0981 15.3161 6.7071 15.7071C6.5121 15.9021 6.25607 16.0001 6.00007 16.0001C5.74407 16.0001 5.48804 15.9021 5.29304 15.7071L2.29401 12.7081C2.20101 12.6151 2.12797 12.5051 2.07697 12.3821C1.97597 12.1381 1.97597 11.862 2.07697 11.618C2.12797 11.495 2.20101 11.3851 2.29401 11.2921L5.29304 8.29304C5.68404 7.90204 6.3161 7.90204 6.7071 8.29304C7.0981 8.68403 7.0981 9.3161 6.7071 9.7071L5.41413 11.0001H11.0001V5.41413L9.7071 6.7071C9.3161 7.0981 8.68403 7.0981 8.29304 6.7071C7.90204 6.3161 7.90204 5.68404 8.29304 5.29304L11.2921 2.29401C11.3851 2.20101 11.495 2.12797 11.618 2.07697C11.862 1.97597 12.1381 1.97597 12.3821 2.07697C12.5051 2.12797 12.6151 2.20101 12.7081 2.29401L15.7071 5.29304C16.0981 5.68404 16.0981 6.3161 15.7071 6.7071C15.5121 6.9021 15.2561 7.00007 15.0001 7.00007C14.7441 7.00007 14.488 6.9021 14.293 6.7071L13.0001 5.41413V11.0001H18.586L17.293 9.7071C16.902 9.3161 16.902 8.68403 17.293 8.29304C17.684 7.90204 18.3161 7.90204 18.7071 8.29304L21.7061 11.2921C21.7991 11.3851 21.8722 11.495 21.9232 11.618C22.0242 11.862 22.0242 12.1381 21.9232 12.3821C21.8722 12.5051 21.7991 12.6151 21.7061 12.7081Z" fill="currentColor"/>
</svg>

<svg xmlns="http://www.w3.org/2000/svg" width="24" height="24" fill="none"><path fill="currentColor" d="m21.706 12.708-2.999 3a.997.997 0 0 1-1.414 0 .999.999 0 0 1 0-1.415L18.586 13H13v5.586l1.293-1.293a.999.999 0 1 1 1.414 1.414l-2.999 3a1 1 0 0 1-1.416 0l-2.999-3a.999.999 0 1 1 1.414-1.414L11 18.586V13H5.414l1.293 1.293a.999.999 0 1 1-1.414 1.414l-2.999-2.999a1 1 0 0 1 0-1.416l2.999-2.999a.999.999 0 1 1 1.414 1.414L5.414 11H11V5.414L9.707 6.707a.999.999 0 1 1-1.414-1.414l3-2.999a1 1 0 0 1 1.415 0l3 2.999a.999.999 0 1 1-1.415 1.414L13 5.414V11h5.586l-1.293-1.293a.999.999 0 1 1 1.414-1.414l3 3a1 1 0 0 1 0 1.415Z"/></svg>
